icons/op-send-mail-24.svg

<svg width="24" height="24" viewBox="0 0 24 24" fill="none" xmlns="http://www.w3.org/2000/svg">
<path d="M9.10259 8.92982L13.6382 5H4.56695L9.10259 8.92982ZM14.1737 5.61404C14.1737 5.55263 14.1737 5.46053 14.1422 5.39912L10.9294 8.16228L14.0792 10.864C14.1422 10.7719 14.1737 10.6798 14.1737 10.5877V5.61404ZM4.0315 5.36842C4 5.46053 4 5.52193 4 5.61404V10.5877C4 10.6798 4.0315 10.7412 4.06299 10.8333L7.24424 8.16228L4.0315 5.36842ZM10.457 8.59211L9.07109 9.75877L7.7167 8.59211L4.59845 11.2018H13.5122L10.457 8.59211ZM11.9374 19L8.00018 14.6711C7.59071 14.2412 7.6852 13.5965 8.18916 13.2281C8.72462 12.8904 9.44906 12.9518 9.85853 13.4123L11.8744 15.5921L17.8589 8.4693C18.2369 8.00877 18.9928 7.91667 19.5283 8.22368C20.0322 8.5614 20.1582 9.20614 19.7802 9.66667L11.9374 19Z" fill="black"/>
</svg>

<svg xmlns="http://www.w3.org/2000/svg" width="24" height="24" viewBox="0 0 24 24"><path d="M9.103 8.93 13.638 5H4.567l4.536 3.93Zm5.071-3.316c0-.061 0-.153-.032-.215l-3.213 2.763 3.15 2.702a.487.487 0 0 0 .095-.276V5.614ZM4.032 5.368C4 5.461 4 5.522 4 5.614v4.974c0 .092.032.153.063.245l3.181-2.671-3.212-2.794Zm6.425 3.224L9.071 9.759 7.717 8.592l-3.119 2.61h8.914l-3.055-2.61ZM11.937 19 8 14.671c-.409-.43-.315-1.074.189-1.443.536-.338 1.26-.276 1.67.184l2.015 2.18 5.985-7.123c.378-.46 1.134-.552 1.669-.245.504.337.63.982.252 1.443L11.937 19Z"/></svg>
